X: 34461
T: Ridee
R: waltz
M: 3/4
K: Aminor
"Am" Ae dc Bc|"D" d2 cB AG|"Am" Ae dc Bc|1 "D" dB d2 cB:|2 "D" d2 cB AB||
"C" c2 BG Bc|BG AB ce|"D" d2 ce dB|1 d2 cB AB:|2 d2 cB AG||

